X: 5628
T: Butterfly
R: reel
M: 4/4
K: Eminor
EA|:B2BA GEED|EBEB dBA2|B2BA GEGA|B2eB dBA2|
B2BA GEED|EBEB dBA2|B2BA GEGA|B2eB dBA2|
Beef gfge|Be3 dBA2|Beef gfga|bage dBA2|
Beef gfge|Be3 dBA2|Beef g3a|bage dBAG:|

